X:180
T: Laurel Bush
S: "Collection of the Dance Music of Ireland" (P. McNulty)
Z: B.Black
L: 1/8
M: 4/4
R: reel
K: Ador
Bd|eA(3AAA e2 dc|BG (3GFG Bcdg|eA (3AAA e2 dc|\
BAGB A2 Bd|
eA(3AAA e2 dc|BG (3GFG Bcdg|e2 ef gfga|gedB A2 :|
Bd|eaag e2 dc|BG (3GFG Bcdg|eaag e2 dc|BAGB A2 Bd|
eaag e2 dc|BG (3GFG Bcdg|e2 ef gfga|gedB A2 :|
